Adwaita++/actions/22/view-bank-account-checking.svg

<svg height="22" viewBox="0 0 22 22" width="22" xmlns="http://www.w3.org/2000/svg">
  <path d="m7 1-7 7h2v7h8.376953c-.23386-.47865-.376953-1.008066-.376953-1.572266 0-1.3977.82389-2.586956 2-3.160156v-2.267578h2zm0 5c1.1046 0 2 .89547 2 2s-.89543 2-2 2c2.9999-.0018 3 2.400391 3 2.400391v.599609h-6v-.599609s-.00011-2.398591 3-2.400391c-1.1046 0-2-.89547-2-2s.89543-2 2-2zm6.5 4v.857422c-1.3806 0-2.5 1.150212-2.5 2.570312 0 1.4202 1.1194 2.572266 2.5 2.572266 1.3666 0 2.475647-1.129097 2.498047-2.529297a.41663.42857 0 0 0 .001953-.042969.41663.42857 0 0 0 -.416016-.427734.41663.42857 0 0 0 -.417968.427734c0 .94677-.745636 1.714844-1.666016 1.714844s-1.666016-.768114-1.666016-1.714844c0-.94677.745656-1.71289 1.666016-1.71289v.857422l1.666016-1.28711z" fill="#444" transform="translate(3 3)"/>
</svg>

<svg xmlns="http://www.w3.org/2000/svg" width="22" height="22" viewBox="0 0 22 22">
 <defs>
  <style id="current-color-scheme" type="text/css">
   .ColorScheme-Text { color:#444444; } .ColorScheme-Highlight { color:#4285f4; }
  </style>
 </defs>
 <path style="fill:currentColor" class="ColorScheme-Text" d="M 7 1 L 0 8 L 2 8 L 2 15 L 10.376953 15 C 10.143093 14.52135 10 13.991934 10 13.427734 C 10 12.030034 10.82389 10.840778 12 10.267578 L 12 8 L 14 8 L 7 1 z M 7 6 C 8.1046 6 9 6.89547 9 8 C 9 9.10453 8.10457 10 7 10 C 9.9999 9.9982 10 12.400391 10 12.400391 L 10 13 L 4 13 L 4 12.400391 C 4 12.400391 3.99989 10.0018 7 10 C 5.8954 10 5 9.10453 5 8 C 5 6.89547 5.89543 6 7 6 z M 13.5 10 L 13.5 10.857422 C 12.1194 10.857422 11 12.007634 11 13.427734 C 11 14.847934 12.1194 16 13.5 16 C 14.8666 16 15.975647 14.870903 15.998047 13.470703 A 0.41663 0.42857 0 0 0 16 13.427734 A 0.41663 0.42857 0 0 0 15.583984 13 A 0.41663 0.42857 0 0 0 15.166016 13.427734 C 15.166016 14.374504 14.42038 15.142578 13.5 15.142578 C 12.57962 15.142578 11.833984 14.374464 11.833984 13.427734 C 11.833984 12.480964 12.57964 11.714844 13.5 11.714844 L 13.5 12.572266 L 15.166016 11.285156 L 13.5 10 z" transform="translate(3 3)"/>
</svg>
